icons/arrow-rounded-topleft.svg

<svg width="24" height="24" viewBox="0 0 24 24" fill="none" xmlns="http://www.w3.org/2000/svg">
<path fill-rule="evenodd" clip-rule="evenodd" d="M7.3554 7.06965C7.06251 6.77675 6.58764 6.77675 6.29474 7.06965L3.79474 9.56965C3.30185 10.0625 3.30185 10.8374 3.79474 11.3303L6.29474 13.8303C6.58764 14.1232 7.06251 14.1232 7.3554 13.8303C7.6483 13.5374 7.6483 13.0625 7.3554 12.7696L5.03573 10.45L7.3554 8.13031C7.6483 7.83741 7.6483 7.36254 7.3554 7.06965Z" fill="black"/>
<path fill-rule="evenodd" clip-rule="evenodd" d="M20.5751 13.4C20.5751 11.2858 18.9393 9.65002 16.8251 9.65002L4.22507 9.65002C3.81086 9.65002 3.47507 9.98581 3.47507 10.4C3.47507 10.8142 3.81086 11.15 4.22507 11.15L16.8251 11.15C18.1109 11.15 19.0751 12.1142 19.0751 13.4C19.0751 14.6858 18.1109 15.65 16.8251 15.65H12.8251C12.4109 15.65 12.0751 15.9858 12.0751 16.4C12.0751 16.8142 12.4109 17.15 12.8251 17.15H16.8251C18.9393 17.15 20.5751 15.5142 20.5751 13.4Z" fill="black"/>
</svg>

<svg xmlns="http://www.w3.org/2000/svg" fill="none" viewBox="0 0 24 24">
  <path fill="#000" fill-rule="evenodd" d="M7.355 7.07a.75.75 0 0 0-1.06 0l-2.5 2.5a1.233 1.233 0 0 0 0 1.76l2.5 2.5a.75.75 0 1 0 1.06-1.06l-2.32-2.32 2.32-2.32a.75.75 0 0 0 0-1.06Z" clip-rule="evenodd"/>
  <path fill="#000" fill-rule="evenodd" d="M20.575 13.4c0-2.114-1.636-3.75-3.75-3.75h-12.6a.75.75 0 0 0 0 1.5h12.6c1.286 0 2.25.964 2.25 2.25s-.964 2.25-2.25 2.25h-4a.75.75 0 0 0 0 1.5h4c2.114 0 3.75-1.636 3.75-3.75Z" clip-rule="evenodd"/>
</svg>
